src/assets/visa-icon.svg

<svg width="70" height="21" viewBox="0 0 70 21" fill="none" xmlns="http://www.w3.org/2000/svg">
<path d="M29.9162 20.6689H24.3237L27.8217 0.36792H33.4139L29.9162 20.6689Z" fill="white"/>
<path d="M50.189 0.864295C49.086 0.453532 47.3364 0 45.173 0C39.6502 0 35.7612 2.76425 35.7373 6.7163C35.6914 9.63211 38.5218 11.2516 40.6387 12.2238C42.8023 13.2173 43.5378 13.8657 43.5378 14.7513C43.5158 16.1113 41.7894 16.7382 40.1793 16.7382C37.9465 16.7382 36.7502 16.415 34.9321 15.6583L34.1957 15.334L33.4131 19.8911C34.7247 20.452 37.1413 20.9498 39.6502 20.9716C45.5183 20.9716 49.3386 18.2501 49.3838 14.0386C49.4062 11.7275 47.9116 9.95676 44.6895 8.50976C42.7335 7.58088 41.5356 6.95455 41.5356 6.00414C41.5586 5.14013 42.5488 4.25517 44.7568 4.25517C46.5749 4.21182 47.9107 4.62201 48.9227 5.03249L49.4285 5.24806L50.189 0.864295V0.864295V0.864295Z" fill="white"/>
<path fill-rule="evenodd" clip-rule="evenodd" d="M60.2002 0.36792H64.526L69.0377 20.6687H63.8596C63.8596 20.6687 63.3528 18.3361 63.1923 17.6234H56.012C55.8043 18.163 54.8383 20.6687 54.8383 20.6687H48.9702L57.2772 2.0523C57.8527 0.734764 58.8662 0.36792 60.2002 0.36792ZM59.8556 7.79695C59.8556 7.79695 58.0834 12.3107 57.6228 13.477H62.2713C62.0413 12.462 60.9823 7.60262 60.9823 7.60262L60.5914 5.85336C60.4268 6.30381 60.1888 6.92311 60.0283 7.34081C59.9194 7.62395 59.8462 7.81446 59.8556 7.79695Z" fill="white"/>
<path fill-rule="evenodd" clip-rule="evenodd" d="M0.0920512 0.36792H9.08983C10.3094 0.41069 11.2991 0.777821 11.6211 2.07441L13.5763 11.4009C13.5766 11.4019 13.5769 11.4028 13.5772 11.4037L14.1757 14.2113L19.6526 0.36792H25.5662L16.7758 20.6474H10.8618L5.87727 3.00768C4.15742 2.0639 2.19458 1.30485 0 0.778108L0.0920512 0.36792Z" fill="white"/>
</svg>

<svg width="70" height="21" fill="none" xmlns="http://www.w3.org/2000/svg"><path d="M29.916 20.669h-5.592L27.822.368h5.592l-3.498 20.3zM50.189.864C49.086.454 47.336 0 45.173 0c-5.523 0-9.412 2.764-9.436 6.716-.046 2.916 2.785 4.536 4.902 5.508 2.163.993 2.899 1.642 2.899 2.527-.022 1.36-1.749 1.987-3.359 1.987-2.233 0-3.429-.323-5.247-1.08l-.736-.324-.783 4.557c1.312.561 3.728 1.059 6.237 1.08 5.868 0 9.689-2.72 9.734-6.932.022-2.312-1.472-4.082-4.694-5.53-1.956-.928-3.154-1.554-3.154-2.505.023-.864 1.013-1.749 3.22-1.749 1.819-.043 3.155.367 4.167.777l.505.216.761-4.384z" fill="#fff"/><path fill-rule="evenodd" clip-rule="evenodd" d="M60.2.368h4.326l4.512 20.3H63.86s-.507-2.332-.668-3.045h-7.18l-1.174 3.046H48.97l8.307-18.617C57.853.735 58.867.368 60.2.368zm-.344 7.429s-1.773 4.514-2.233 5.68h4.648c-.23-1.015-1.289-5.874-1.289-5.874l-.39-1.75c-.165.45-.403 1.07-.564 1.488-.109.283-.182.473-.172.456zM.092.368H9.09c1.22.043 2.21.41 2.531 1.706l1.955 9.327.001.003.599 2.807L19.653.368h5.913l-8.79 20.28h-5.914L5.877 3.007C4.157 2.064 2.195 1.305 0 .778l.092-.41z" fill="#fff"/></svg>
